src/public/img/icons/settings.svg

<svg width="20" height="20" viewBox="0 0 20 20" fill="none" xmlns="http://www.w3.org/2000/svg">
<path d="M11.1191 3.61336C11.0508 3.11856 10.6279 2.75 10.1285 2.75H9.8715C9.3721 2.75 8.9492 3.11856 8.8809 3.61336L8.7938 4.24511C8.7382 4.64815 8.4403 4.96897 8.0622 5.11922C8.006 5.14156 7.95021 5.16484 7.89497 5.18905C7.52217 5.3524 7.08438 5.3384 6.75876 5.09419L6.45119 4.86351C6.05307 4.56492 5.49597 4.60451 5.14408 4.9564L4.95641 5.14408C4.60452 5.49597 4.56492 6.05306 4.86351 6.45118L5.09419 6.75876C5.33841 7.08437 5.3524 7.52216 5.18905 7.89497C5.16484 7.95021 5.14156 8.006 5.11922 8.0622C4.96897 8.4403 4.64815 8.7382 4.24511 8.7938L3.61336 8.8809C3.11856 8.9492 2.75 9.372 2.75 9.8715V10.1285C2.75 10.6279 3.11856 11.0508 3.61336 11.1191L4.24511 11.2062C4.64815 11.2618 4.96897 11.5597 5.11922 11.9378C5.14156 11.994 5.16484 12.0498 5.18905 12.105C5.3524 12.4778 5.3384 12.9156 5.09419 13.2412L4.86351 13.5488C4.56492 13.9469 4.60451 14.504 4.9564 14.8559L5.14408 15.0436C5.49597 15.3955 6.05306 15.4351 6.45118 15.1365L6.75876 14.9058C7.08437 14.6616 7.52216 14.6476 7.89496 14.811C7.95021 14.8352 8.006 14.8584 8.0622 14.8808C8.4403 15.031 8.7382 15.3519 8.7938 15.7549L8.8809 16.3866C8.9492 16.8814 9.3721 17.25 9.8715 17.25H10.1285C10.6279 17.25 11.0508 16.8814 11.1191 16.3866L11.2062 15.7549C11.2618 15.3519 11.5597 15.031 11.9378 14.8808C11.994 14.8584 12.0498 14.8352 12.105 14.8109C12.4778 14.6476 12.9156 14.6616 13.2412 14.9058L13.5488 15.1365C13.9469 15.4351 14.504 15.3955 14.8559 15.0436L15.0436 14.8559C15.3955 14.504 15.4351 13.9469 15.1365 13.5488L14.9058 13.2412C14.6616 12.9156 14.6476 12.4778 14.811 12.105C14.8352 12.0498 14.8584 11.994 14.8808 11.9378C15.031 11.5597 15.3519 11.2618 15.7549 11.2062L16.3866 11.1191C16.8814 11.0508 17.25 10.6279 17.25 10.1285V9.8715C17.25 9.3721 16.8814 8.9492 16.3866 8.8809L15.7549 8.7938C15.3519 8.7382 15.031 8.4403 14.8808 8.0622C14.8584 8.006 14.8352 7.95021 14.8109 7.89496C14.6476 7.52216 14.6616 7.08437 14.9058 6.75875L15.1365 6.4512C15.4351 6.05308 15.3955 5.49599 15.0436 5.1441L14.8559 4.95642C14.504 4.60453 13.9469 4.56494 13.5488 4.86353L13.2412 5.09419C12.9156 5.33841 12.4778 5.3524 12.105 5.18905C12.0498 5.16484 11.994 5.14156 11.9378 5.11922C11.5597 4.96897 11.2618 4.64815 11.2062 4.24511L11.1191 3.61336Z" stroke="#111A2C" stroke-width="1.5" stroke-linecap="round" stroke-linejoin="round"/>
<path d="M11.25 10C11.25 10.6904 10.6904 11.25 10 11.25C9.3096 11.25 8.75 10.6904 8.75 10C8.75 9.3096 9.3096 8.75 10 8.75C10.6904 8.75 11.25 9.3096 11.25 10Z" stroke="#111A2C" stroke-width="1.5" stroke-linecap="round" stroke-linejoin="round"/>
</svg>

<svg xmlns="http://www.w3.org/2000/svg" width="20" height="20" fill="none">
  <path stroke="#111A2C" stroke-linecap="round" stroke-linejoin="round" stroke-width="1.5" d="M11.12 3.613a1 1 0 0 0-.991-.863H9.87a1 1 0 0 0-.99.863l-.087.632c-.056.403-.354.724-.732.874a5.225 5.225 0 0 0-.167.07c-.373.163-.81.15-1.136-.095l-.308-.23a1 1 0 0 0-1.307.092l-.188.188a1 1 0 0 0-.092 1.307l.23.308c.244.325.258.763.095 1.136a5.225 5.225 0 0 0-.07.167c-.15.378-.47.676-.874.732l-.632.087a1 1 0 0 0-.863.99v.258a1 1 0 0 0 .863.99l.632.087c.403.056.724.354.874.732l.07.167c.163.373.15.81-.095 1.136l-.23.308a1 1 0 0 0 .092 1.307l.188.188a1 1 0 0 0 1.307.092l.308-.23c.325-.244.763-.258 1.136-.095a5.4 5.4 0 0 0 .167.07c.378.15.676.47.732.874l.087.632a1 1 0 0 0 .99.863h.258a1 1 0 0 0 .99-.863l.087-.632c.056-.403.354-.724.732-.874a5.12 5.12 0 0 0 .167-.07c.373-.163.81-.15 1.136.095l.308.23a1 1 0 0 0 1.307-.092l.188-.188a1 1 0 0 0 .092-1.307l-.23-.308c-.244-.325-.258-.763-.095-1.136l.07-.167c.15-.378.47-.676.874-.732l.632-.087a1 1 0 0 0 .863-.99V9.87a1 1 0 0 0-.863-.99l-.632-.087c-.403-.056-.724-.354-.874-.732a5.168 5.168 0 0 0-.07-.167c-.163-.373-.15-.81.095-1.136l.23-.308a1 1 0 0 0-.092-1.307l-.188-.188a1 1 0 0 0-1.307-.092l-.308.23c-.325.244-.763.258-1.136.095a5.185 5.185 0 0 0-.167-.07c-.378-.15-.676-.47-.732-.874l-.087-.632Z"/>
  <path stroke="#111A2C" stroke-linecap="round" stroke-linejoin="round" stroke-width="1.5" d="M11.25 10a1.25 1.25 0 1 1-2.5 0 1.25 1.25 0 0 1 2.5 0Z"/>
</svg>
